X:1
T:New Braunfels, 13.11.12.11
T:John Clarke (1770-1836)
T:New Braunfels, 13.11.12.11
T:Public Domain
C:John Clarke (1770-1836)
Z:Public Domain
%%score ( 1 2 ) 3 4
L:1/8
M:3/8
K:A
V:1 treble 
V:2 treble 
V:3 treble 
V:4 bass 
V:1
 z [A,A]/[B,A]/ | [CA]2 [DA]/[CA]/ | [CA]2 [EA]/[EA]/ | [EG][EF][EG] | [EA][Ac][Ac] | %5
 [Ac][EA][EA] | [FA][DA][DA] | [CA][Ec][EA] | (AG)[EG] | [EG][EG][EG] | [EA][Ac][EA] | %11
 [EG][EB][EG] | [EA][Ac][Ac]/[Ac]/ | [Ac][EA][EA] | [FA][DA][DA] | [CA][Ec][EA] | (AG)[EG]/[EG]/ | %17
 [EA][EA][EA] | [Ec]2 [Ec]/[Ec]/ | [Ed]>[Ec][Ed] | [Ec]4 |] %21
V:2
 x2 | x3 | x3 | x3 | x3 | x3 | x3 | x3 | E2 x | x3 | x3 | x3 | x3 | x3 | x3 | x3 | E2 x | x3 | x3 | %19
 x3 | x4 |] %21
V:3
 z C/D/ | E2 F/E/ | (EA)c/c/ | BAB | cee | ecA | AFF | EAc | (cB)B | BdB | cec | BdB | cee/e/ | %13
 ecA | AFF | EAc | (cB)B/B/ | cAc | e2 A/A/ | B>AB | A4 |] %21
V:4
 z A,,/A,,/ | A,,2 A,,/A,,/ | A,,2 A,,/A,,/ | E,E,E, | A,A,A, | A,A,C, | D,D,D, | A,,A,,A,, | %8
 E,2 E, | E,E,E, | A,A,A, | E,E,E, | A,A,A,/A,/ | A,A,C, | D,D,D, | A,,A,,A,, | E,2 E,/E,/ | %17
 A,C,A,, | A,2 A,,/A,,/ | E,>E,E, | A,,4 |] %21

